public/avatar/hat/2.svg

<svg xmlns:xlink="http://www.w3.org/1999/xlink" height="92.9" width="100.7" xmlns="http://www.w3.org/2000/svg"><use height="13.8" transform="translate(27.5 44)" width="22.25" xlink:href="#a"/><defs><use height="13.8" width="22.25" xlink:href="#b" id="a"/><g id="b"><path d="m-8.7-.45 1.35-2L-5.6-4.2l1.5-1 1.9-.8 1.85-.4 2.85.55 1.8.9L5.8-3.8l1.5 2L8-.3 5.4.6l-7.45.5Q-6.5.8-8.7-.45" fill="#004566" fill-rule="evenodd" transform="translate(11.15 6.9)"/><path d="m8-.3 1.3.2q.5.15 1.1 2.15.55 2-.5 2.7-1.05.7-3.1 1.15l-6.35.5-6.1-.45-3.45-.9q-1.4-.5-1.5-1.8-.15-1.3.45-2.55.6-1.35 1.45-1.15Q-6.5.8-2.05 1.1L5.4.6 8-.3" fill="#09c" fill-rule="evenodd" transform="translate(11.15 6.9)"/><path d="m8-.3 1.3.2q.5.15 1.1 2.15.55 2-.5 2.7-1.05.7-3.1 1.15l-6.35.5-6.1-.45-3.45-.9q-1.4-.5-1.5-1.8-.15-1.3.45-2.55.6-1.35 1.45-1.15l1.35-2L-5.6-4.2l1.5-1 1.9-.8 1.85-.4 2.85.55 1.8.9L5.8-3.8l1.5 2L8-.3 5.4.6l-7.45.5Q-6.5.8-8.7-.45" fill="none" stroke="#369" stroke-linecap="round" stroke-linejoin="round" transform="translate(11.15 6.9)"/></g></defs></svg>

<?xml version="1.0" encoding="UTF-8" standalone="no"?>
<svg xmlns:xlink="http://www.w3.org/1999/xlink" height="92.9px" width="100.7px" xmlns="http://www.w3.org/2000/svg">
  <g transform="matrix(1.0, 0.0, 0.0, 1.0, 38.65, 49.75)">
    <use height="13.8" transform="matrix(1.0, 0.0, 0.0, 1.0, -11.15, -5.75)" width="22.25" xlink:href="#sprite0"/>
  </g>
  <defs>
    <g id="sprite0" transform="matrix(1.0, 0.0, 0.0, 1.0, 11.15, 6.9)">
      <use height="13.8" transform="matrix(1.0, 0.0, 0.0, 1.0, -11.15, -6.9)" width="22.25" xlink:href="#shape0"/>
    </g>
    <g id="shape0" transform="matrix(1.0, 0.0, 0.0, 1.0, 11.15, 6.9)">
      <path d="M-8.7 -0.45 L-7.35 -2.45 -5.6 -4.2 -4.1 -5.2 -2.2 -6.0 -0.35 -6.4 2.5 -5.85 4.3 -4.95 5.8 -3.8 7.3 -1.8 8.0 -0.3 5.4 0.6 -2.05 1.1 Q-6.5 0.8 -8.7 -0.45" fill="#004566" fill-rule="evenodd" stroke="none"/>
      <path d="M8.0 -0.3 L9.3 -0.1 Q9.8 0.05 10.4 2.05 10.95 4.05 9.9 4.75 8.85 5.45 6.8 5.9 L0.45 6.4 -5.65 5.95 -9.1 5.05 Q-10.5 4.55 -10.6 3.25 -10.75 1.95 -10.15 0.7 -9.55 -0.65 -8.7 -0.45 -6.5 0.8 -2.05 1.1 L5.4 0.6 8.0 -0.3" fill="#0099cc" fill-rule="evenodd" stroke="none"/>
      <path d="M8.0 -0.3 L9.3 -0.1 Q9.8 0.05 10.4 2.05 10.95 4.05 9.9 4.75 8.85 5.45 6.8 5.9 L0.45 6.4 -5.65 5.95 -9.1 5.05 Q-10.5 4.55 -10.6 3.25 -10.75 1.95 -10.15 0.7 -9.55 -0.65 -8.7 -0.45 L-7.35 -2.45 -5.6 -4.2 -4.1 -5.2 -2.2 -6.0 -0.35 -6.4 2.5 -5.85 4.3 -4.95 5.8 -3.8 7.3 -1.8 8.0 -0.3 5.4 0.6 -2.05 1.1 Q-6.5 0.8 -8.7 -0.45" fill="none" stroke="#336699" stroke-linecap="round" stroke-linejoin="round" stroke-width="1.0"/>
    </g>
  </defs>
</svg>
